X:1
T:MENUETT No. 1 mit TRIO
T:MENUETT in F MAJOR
T:für das Pianoforte
T:W. A. Mozart
T:Köch. Verz. No. 4
C:W. A. Mozart
Z:Köch. Verz. No. 1
%%score { ( 1 3 ) | 2 }
L:1/8
Q:1/4=90
M:3/4
K:F
V:1 treble nm="Piano" snm="Pno."
V:3 treble 
V:2 bass 
V:1
 FF (TF3 E/F/ | G3 A/B/ A2) | (3(dcB) A2 TG2 | F2 z2 z2 | .G.f(f!tenuto!.d)(d!tenuto!.=B) | %5
 (c3 e g2) | .G.f(f!tenuto!.d)(d!tenuto!.=B) | (c3 e g2) | (3(afd (3gec (3fd=B) | (=B4 c2) :| %10
 FF (TF3/2E/4F/4 c_e) | (d!tenuto!.B)(A!tenuto!.c) B2 | GG (TG3/2^F/4G/4 d=f) | %13
 (e!tenuto!.c)(=B!tenuto!.d) c2 | FF (TF3 E/F/ | G3 A/B/ A2) |[K:bass] F,F, (TF,3 E,/F,/ | %17
 G,3 A,/B,/ A,2) |[K:treble] .C.B(B!tenuto!.G)(G!tenuto!.E) | (F3 A c2) | %20
 .c.b(b!tenuto!.g)(g!tenuto!.e) | (f3 a c'2) | (3(dBG (3cAF (3BGE) | (E4 F2) |] %24
V:2
 F,2 A,2 F,2 | E,2 C,2 F,2 | B,2 C2 C,2 | F,2 C,2 F,,2 | G,4 F,2 | E,6 | G,4 F,2 | E,6 | %8
 F,2 G,2 G,,2 | C,2 G,,2 C,,2 :| F,2 A,2 F,2 | B,2 C2 D2 | G,2 =B,2 G,2 | C2 D2 E2 | F,2 A,2 F,2 | %15
 E,2 C,2 F,2 | F,,2 A,,2 F,,2 | E,,2 C,,2 F,,2 | C,4 B,,2 | A,,6 | C4 B,2 | A,6 | B,2 C2 C,2 | %23
 F,2 C,2 F,,2 |] %24
V:3
 x6 | x6 | x5 F/G/ | x6 | x6 | x6 | x6 | x6 | x6 | x6 :| x6 | x6 | x6 | x6 | x6 | x6 |[K:bass] x6 | %17
 x6 |[K:treble] x6 | x6 | x6 | x6 | x6 | x6 |] %24

